X:1
T:[ID 11-30d]
T:[ID 11-30d]
T:Bezeichnung standardisiert: Eccosaise Nr 20 Cosaise
T:Urheber unbekannt Datum in der hier transkribierten schriftlichen Quelle: vermutlich um 1800
C:Urheber unbekannt
C:Datum in der hier transkribierten schriftlichen Quelle: vermutlich um 1800
L:1/8
M:2/4
K:Bb
V:1 treble 
V:1
 (BAB)D | EFGA | (BAB)D | EFGA | B2 bf | dB FD | C2 [FA]2 | [DB]2 z2 :: cAdB | eAdA | bf bf | %11
 bf dB | [ce]AcA | eA cA | bf bf | b2 z2 :| %16

